X: 40747
T: Totar's
R: reel
M: 4/4
K: Dmajor
dcdf Adfa|gfge =cBAG|cBcA GBed|cBcG ABcd|
dcdf Adfa|gfge =cBAG|cBAa fedc|dfafd2AB:|
|:aD~D2cdef|gB~B2B2ed|cBcA GBeB|cABG A2fg|
aD~D2cdef|gB~B2B2ed|cBAa fedc|dfafd2fg:|

